icons/shield-16.svg

<svg xmlns="http://www.w3.org/2000/svg" width="16" height="16" viewBox="0 0 16 16"><path fill-rule="evenodd" d="M7.467.133a1.75 1.75 0 011.066 0l5.25 1.68A1.75 1.75 0 0115 3.48V7c0 1.566-.32 3.182-1.303 4.682-.983 1.498-2.585 2.813-5.032 3.855a1.7 1.7 0 01-1.33 0c-2.447-1.042-4.049-2.357-5.032-3.855C1.32 10.182 1 8.566 1 7V3.48a1.75 1.75 0 011.217-1.667l5.25-1.68zm.61 1.429a.25.25 0 00-.153 0l-5.25 1.68a.25.25 0 00-.174.238V7c0 1.358.275 2.666 1.057 3.86.784 1.194 2.121 2.34 4.366 3.297a.2.2 0 00.154 0c2.245-.956 3.582-2.104 4.366-3.298C13.225 9.666 13.5 8.36 13.5 7V3.48a.25.25 0 00-.174-.237l-5.25-1.68zM9 10.5a1 1 0 11-2 0 1 1 0 012 0zm-.25-5.75a.75.75 0 10-1.5 0v3a.75.75 0 001.5 0v-3z"/></svg>

<svg xmlns="http://www.w3.org/2000/svg" width="16" height="16" viewBox="0 0 16 16">
  <defs/>
  <path d="M7.467,0.133 C7.814,0.022 8.186,0.022 8.533,0.133 L13.783,1.813 C14.508,2.045 15,2.719 15,3.48 L15,7 C15,8.566 14.68,10.182 13.697,11.682 C12.714,13.18 11.112,14.495 8.665,15.537 C8.24,15.718 7.76,15.718 7.335,15.537 C4.888,14.495 3.286,13.18 2.303,11.682 C1.32,10.182 1,8.566 1,7 L1,3.48 C1,2.719 1.492,2.045 2.217,1.813 Z M8.077,1.562 C8.027,1.546 7.974,1.546 7.924,1.562 L2.674,3.242 C2.57,3.275 2.5,3.371 2.5,3.48 L2.5,7 C2.5,8.358 2.775,9.666 3.557,10.86 C4.341,12.054 5.678,13.2 7.923,14.157 C7.972,14.178 8.028,14.178 8.077,14.157 C10.322,13.201 11.659,12.053 12.443,10.859 C13.225,9.666 13.5,8.36 13.5,7 L13.5,3.48 C13.499,3.372 13.429,3.276 13.326,3.243 L8.076,1.563 Z M8.75,4.75 L8.75,7.75 C8.75,8.164 8.414,8.5 8,8.5 C7.586,8.5 7.25,8.164 7.25,7.75 L7.25,4.75 C7.25,4.336 7.586,4 8,4 C8.414,4 8.75,4.336 8.75,4.75 Z M9,10.5 C9,11.052 8.552,11.5 8,11.5 C7.448,11.5 7,11.052 7,10.5 C7,9.948 7.448,9.5 8,9.5 C8.552,9.5 9,9.948 9,10.5 Z"/>
</svg>
